media/img/icon_grow.svg

<svg width="112" height="112" viewBox="0 0 112 112" fill="none" xmlns="http://www.w3.org/2000/svg">
	<path
		d="M92.5909 72.4659V86.3449L84.7366 78.4906L82.1497 81.0776L92.5909 91.5188V110.886H96.25V91.5188L106.691 81.0776L104.104 78.4906L96.25 86.3449V72.4659H92.5909Z"
		fill="#000"
	/>
	<path d="M79.7841 85.2727H76.125V88.9318H79.7841V85.2727Z" fill="#000" />
	<path d="M85.2727 105.398H81.6136V109.057H85.2727V105.398Z" fill="#000" />
	<path d="M110.886 88.9319H107.227V92.591H110.886V88.9319Z" fill="#000" />
	<path d="M103.568 99.9091H99.9091V103.568H103.568V99.9091Z" fill="#000" />
	<path d="M110.886 107.227H107.227V110.886H110.886V107.227Z" fill="#000" />
	<path d="M87.1022 94.4204H83.4431V98.0795H87.1022V94.4204Z" fill="#000" />
	<path
		d="M8.43183 87.1023C9.68465 87.0991 10.9193 86.8028 12.0372 86.2372L19.4091 95.0835V110.886H23.0682V95.0835L30.4401 86.2372C31.558 86.8028 32.7927 87.0991 34.0455 87.1023C35.8626 87.2133 37.6503 86.6032 39.0204 85.4044C40.3905 84.2055 41.2325 82.5147 41.3636 80.6989C41.2325 78.883 40.3905 77.1922 39.0204 75.9934C37.6503 74.7945 35.8626 74.1844 34.0455 74.2955C32.2283 74.1844 30.4407 74.7945 29.0706 75.9934C27.7005 77.1922 26.8584 78.883 26.7273 80.6989C26.7404 81.8098 27.0759 82.8929 27.6931 83.8167L23.0682 89.3671V75.8976C24.5477 75.6428 25.8966 74.8928 26.8939 73.7706C27.8911 72.6485 28.4775 71.2207 28.5568 69.7216C28.4257 67.9058 27.5837 66.2149 26.2136 65.0161C24.8434 63.8173 23.0558 63.2071 21.2386 63.3182C19.4215 63.2071 17.6339 63.8173 16.2637 65.0161C14.8936 66.2149 14.0516 67.9058 13.9205 69.7216C13.9998 71.2207 14.5862 72.6485 15.5834 73.7706C16.5807 74.8928 17.9296 75.6428 19.4091 75.8976V89.3671L14.7842 83.8167C15.4014 82.8929 15.7369 81.8098 15.75 80.6989C15.6188 78.883 14.7768 77.1922 13.4067 75.9934C12.0366 74.7945 10.249 74.1844 8.43183 74.2955C6.61467 74.1844 4.82703 74.7945 3.45693 75.9934C2.08682 77.1922 1.24481 78.883 1.11365 80.6989C1.24481 82.5147 2.08682 84.2055 3.45693 85.4044C4.82703 86.6032 6.61467 87.2133 8.43183 87.1023ZM34.0455 77.9545C36.0287 77.9545 37.7046 79.2114 37.7046 80.6989C37.7046 82.1863 36.0287 83.4432 34.0455 83.4432C32.0622 83.4432 30.3864 82.1863 30.3864 80.6989C30.3864 79.2114 32.0622 77.9545 34.0455 77.9545ZM17.5796 69.7216C17.5796 68.2342 19.2554 66.9773 21.2386 66.9773C23.2219 66.9773 24.8977 68.2342 24.8977 69.7216C24.8977 71.209 23.2219 72.4659 21.2386 72.4659C19.2554 72.4659 17.5796 71.209 17.5796 69.7216ZM8.43183 77.9545C10.4151 77.9545 12.0909 79.2114 12.0909 80.6989C12.0909 82.1863 10.4151 83.4432 8.43183 83.4432C6.4486 83.4432 4.77274 82.1863 4.77274 80.6989C4.77274 79.2114 6.4486 77.9545 8.43183 77.9545Z"
		fill="#000"
	/>
	<path
		d="M8.43176 56C8.4323 57.9066 8.54506 59.8115 8.76944 61.7048L12.4035 61.2724C12.1955 59.5227 12.0911 57.7621 12.0909 56C12.0643 49.1781 13.6399 42.4453 16.6906 36.3436C19.7414 30.2419 24.1822 24.9417 29.6556 20.8697L27.458 17.9431C21.529 22.3545 16.7186 28.0963 13.4139 34.7064C10.1093 41.3164 8.4028 48.61 8.43176 56Z"
		fill="#000"
	/>
	<path
		d="M31.4119 92.3845L29.3608 95.4147C36.6004 100.303 45.0453 103.106 53.7712 103.516C62.497 103.926 71.1675 101.927 78.8336 97.7391L77.0755 94.5303C69.9994 98.395 61.9966 100.239 53.9428 99.8606C45.889 99.4822 38.0944 96.8958 31.4119 92.3845H31.4119Z"
		fill="#000"
	/>
	<path
		d="M99.9091 56C99.9125 60.1734 99.3211 64.326 98.1527 68.3325L101.665 69.3598C104.374 60.0655 104.187 50.1665 101.128 40.9814C98.0699 31.7962 92.2854 23.761 84.5455 17.9459L82.3479 20.8707C87.82 24.9434 92.2597 30.2437 95.3099 36.3451C98.36 42.4465 99.9353 49.1787 99.9091 56Z"
		fill="#000"
	/>
	<path
		d="M43.4968 8.21922C38.0225 9.18224 34.0454 12.9387 34.0454 17.3509C34.0856 18.7168 34.4558 20.0527 35.1244 21.2445C35.793 22.4363 36.7402 23.4485 37.885 24.1947C37.0843 25.4255 36.6529 26.8599 36.6415 28.3281C36.6415 33.4987 42.1229 37.7046 48.8587 37.7046C50.6708 37.7087 52.4694 37.3909 54.1704 36.766V59.6591H57.8295V37.1705C59.1383 37.5218 60.4872 37.7014 61.8424 37.7046C68.5781 37.7046 74.0596 33.4987 74.0596 28.3281C74.0577 27.0986 73.7553 25.8881 73.1787 24.8021C74.5645 24.0958 75.7373 23.0333 76.5766 21.7238C77.4159 20.4143 77.8915 18.905 77.9545 17.3509C77.9545 12.5563 73.2413 8.59084 67.1488 8.04144C65.7498 4.00091 60.9883 1.11365 55.3514 1.11365C49.6162 1.11365 44.8119 4.0813 43.4968 8.21922ZM46.8237 10.0711C47.1614 7.09992 50.9062 4.77274 55.3514 4.77274C59.7662 4.77274 63.5093 7.08201 63.8756 10.0309C63.9407 10.4775 64.1649 10.8856 64.507 11.18C64.8491 11.4745 65.2859 11.6355 65.7373 11.6335C70.3755 11.6335 74.2954 14.2519 74.2954 17.3509C74.2954 19.4189 72.5695 21.3387 69.793 22.3625C69.5093 22.4669 69.2558 22.6399 69.0553 22.8663C68.8549 23.0926 68.7136 23.3651 68.6442 23.6593C68.5749 23.9536 68.5795 24.2605 68.6577 24.5525C68.736 24.8445 68.8854 25.1126 69.0926 25.3328C69.8932 26.1289 70.3607 27.1998 70.4005 28.3281C70.4005 31.4271 66.4805 34.0455 61.8424 34.0455C60.4739 34.0453 59.116 33.8067 57.8295 33.3403V29.3144L64.6116 22.5322L62.0246 19.9452L57.8295 24.1402V15.75H54.1704V24.1402L49.9753 19.945L47.3883 22.5321L54.1704 29.3144V32.76C52.5318 33.617 50.7078 34.0584 48.8587 34.0455C44.2205 34.0455 40.3005 31.4271 40.3005 28.3281C40.3299 27.6987 40.4882 27.0821 40.7657 26.5164C41.0433 25.9508 41.4341 25.4482 41.9139 25.0398C42.1325 24.8352 42.2977 24.5802 42.3949 24.2971C42.4921 24.0139 42.5184 23.7112 42.4715 23.4155C42.4246 23.1198 42.3059 22.8402 42.1258 22.601C41.9458 22.3618 41.7098 22.1704 41.4386 22.0435C40.4346 21.6971 39.55 21.0717 38.8887 20.2406C38.2273 19.4095 37.8165 18.4071 37.7045 17.3509C37.7045 14.5413 40.9812 12.0534 45.1656 11.6871C45.5861 11.6506 45.9809 11.4697 46.2832 11.1751C46.5854 10.8806 46.7764 10.4905 46.8237 10.0711Z"
		fill="#000"
	/>
</svg>

<svg width="112" height="112" viewBox="0 0 112 112" fill="none" xmlns="http://www.w3.org/2000/svg"><path d="M92.59 72.466v13.879l-7.853-7.854-2.587 2.587 10.44 10.44v19.368h3.66V91.519l10.441-10.441-2.587-2.587-7.854 7.854v-13.88h-3.66zM79.784 85.273h-3.659v3.659h3.66v-3.66zm5.489 20.125h-3.66v3.659h3.66v-3.659zm25.613-16.466h-3.659v3.659h3.659v-3.66z" fill="#000"/><path d="M103.568 99.91h-3.659v3.658h3.659v-3.659zm7.318 7.317h-3.659v3.659h3.659v-3.659zM87.102 94.42h-3.659v3.66h3.66v-3.66zm-78.67-7.318a8.032 8.032 0 003.605-.865l7.372 8.847v15.802h3.66V95.084l7.371-8.847a8.032 8.032 0 003.605.865 6.915 6.915 0 007.319-6.403 6.914 6.914 0 00-7.319-6.403 6.914 6.914 0 00-7.318 6.403 5.734 5.734 0 00.966 3.118l-4.625 5.55v-13.47a6.622 6.622 0 005.489-6.175 6.914 6.914 0 00-7.318-6.404 6.915 6.915 0 00-7.319 6.404 6.622 6.622 0 005.49 6.176v13.47l-4.626-5.551a5.734 5.734 0 00.966-3.118 6.914 6.914 0 00-7.318-6.403 6.914 6.914 0 00-7.318 6.403 6.915 6.915 0 007.318 6.403zm25.613-9.148c1.984 0 3.66 1.257 3.66 2.745 0 1.487-1.676 2.744-3.66 2.744-1.983 0-3.659-1.257-3.659-2.744 0-1.488 1.676-2.745 3.66-2.745zM17.58 69.722c0-1.488 1.675-2.745 3.659-2.745 1.983 0 3.659 1.257 3.659 2.745 0 1.487-1.676 2.744-3.66 2.744-1.983 0-3.658-1.257-3.658-2.744zm-9.148 8.233c1.983 0 3.659 1.256 3.659 2.744 0 1.487-1.676 2.744-3.66 2.744-1.982 0-3.658-1.257-3.658-2.744 0-1.488 1.676-2.745 3.659-2.745zm0-21.955c0 1.907.113 3.812.337 5.705l3.634-.433A44.708 44.708 0 0112.091 56a43.575 43.575 0 0117.565-35.13l-2.198-2.927A47.205 47.205 0 008.432 56z" fill="#000"/><path d="M31.412 92.385l-2.051 3.03a47.616 47.616 0 0049.473 2.324l-1.758-3.209a43.957 43.957 0 01-45.664-2.145zM99.91 56a43.923 43.923 0 01-1.757 12.332l3.512 1.028a47.63 47.63 0 00-17.12-51.414l-2.197 2.925A43.584 43.584 0 0199.909 56zM43.497 8.22c-5.474.962-9.452 4.719-9.452 9.13a8.467 8.467 0 003.84 6.845 7.69 7.69 0 00-1.243 4.133c0 5.17 5.48 9.377 12.217 9.377a15.3 15.3 0 005.311-.939v22.893h3.66V37.17c1.308.352 2.657.531 4.012.535 6.736 0 12.218-4.206 12.218-9.377a7.544 7.544 0 00-.881-3.526 8.762 8.762 0 004.775-7.451c0-4.795-4.713-8.76-10.805-9.31-1.4-4.04-6.16-6.927-11.798-6.927-5.735 0-10.54 2.967-11.854 7.105zm3.327 1.851c.337-2.971 4.082-5.298 8.527-5.298 4.415 0 8.158 2.309 8.525 5.258a1.872 1.872 0 001.861 1.602c4.639 0 8.558 2.619 8.558 5.718 0 2.068-1.725 3.988-4.502 5.012a1.829 1.829 0 00-.7 2.97 4.445 4.445 0 011.307 2.995c0 3.1-3.92 5.717-8.558 5.717-1.368 0-2.726-.238-4.012-.705v-4.026l6.782-6.782-2.587-2.587-4.195 4.195v-8.39h-3.66v8.39l-4.195-4.195-2.587 2.587 6.782 6.782v3.446a11.291 11.291 0 01-5.311 1.285c-4.639 0-8.559-2.618-8.559-5.717a4.601 4.601 0 011.614-3.288 1.832 1.832 0 00-.475-2.996 5.588 5.588 0 01-3.734-4.693c0-2.81 3.276-5.298 7.46-5.664a1.828 1.828 0 001.659-1.616z" fill="#000"/></svg>
